media/images/LogoCompagnieMa.svg

<svg height="154" viewBox="0 0 176 154" width="176" xmlns="http://www.w3.org/2000/svg"><g fill="none" fill-rule="evenodd"><path d="m74.5 154c41.145214 0 74.5-33.354786 74.5-74.5 0-41.1452139-33.354786-74.5-74.5-74.5-41.1452139 0-74.5 33.3547861-74.5 74.5 0 41.145214 33.3547861 74.5 74.5 74.5z" fill="#f72c2f"/><g fill="#fff"><path d="m75.4371954 98.3851464c.2259419 1.6955146.0501642 6.1801846 0 6.6148536h-46.2248311c-.2500506-1.957769-.0386018-6.6521685 0-6.9417893s11.102213-.721928 15.2074444-3.8106332c3.5696072-6.9026035 9.2414143-76.1305871 8.489068-81.3744157-7.3972734-6.53221515-17.131541-5.85282801-17.131541-5.85282801s-.2263783-1.24554309-.2263783-3.17047332c0-1.92493024.2263783-3.84986047.2263783-3.84986047s30.7874535 1.14928768 33.5039934 1.14928768c2.7165399 9.04151942 35.1015279 73.17097092 35.1015279 73.17097092.492984.9781522 1.306388.9775356 1.816096-.0021441 0 0 30.316739-58.0128231 35.35215-73.16882682 2.684484-.09223754 13.301226-1.14928768 33.448897-1.14928768v7.02033379s-16.751996 0-16.751996 5.85282801l-.747598 37.1750242s.747598 1.1323119-7.402022 1.1323119c-7.696856 0-7.696856-1.1323119-7.696856-1.1323119l-.72722-23.6086317c-.068044-2.2089963-.911533-2.4013087-1.891532-.4142421l-18.66081 37.837079-18.110266 40.7632288s-1.584649 0-3.169297 0c-1.5846476 0-2.9429182 0-2.9429182 0s-7.8014802-19.4832387-17.2047527-40.7632288c-9.4032725-21.27999-18.4952677-40.0273772-18.4952677-40.0273772s-4.1425666 59.9560667-3.2370515 67.4293253c.679135 6.1144842 10.6397813 6.1144842 17.4747825 7.1208071.1995443 1.4617626 0 0 0 0z"/><path d="m39.7681563 114.990399c-.5908384.358769-1.2918226.538151-2.1029736.538151-1.0965561 0-1.9815486-.360027-2.6550043-1.080091-.6734556-.720064-1.0101784-1.653607-1.0101784-2.800657 0-1.27843.3630097-2.305454 1.0890399-3.081102.7260303-.775648 1.6948906-1.163466 2.9066101-1.163466.6759592 0 1.2717957.126325 1.7875276.378979v1.273371c-.57081-.404247-1.1816677-.606367-1.8325914-.606367-.7861155 0-1.4307706.284231-1.9339847.852703-.503214.568472-.7548173 1.315054-.7548173 2.239768 0 .909555.2365822 1.627081.7097536 2.152602s1.1078125.788277 1.9039422.788277c.6709521 0 1.3018379-.224859 1.8926763-.674583zm8.6964146.538151c-1.1366128 0-2.044137-.362553-2.7225998-1.087671-.6784627-.725117-1.017689-1.686452-1.017689-2.884032 0-1.303695.3529956-2.321876 1.0589974-3.054573.7060019-.732697 1.6598411-1.09904 2.8615463-1.09904 1.1466271 0 2.0416337.356237 2.6850468 1.068722.643413.712484.9651147 1.700347.9651147 2.963618 0 1.238005-.3467369 2.229657-1.0402209 2.974987-.6934841.74533-1.6235399 1.117989-2.7901955 1.117989zm.0901275-7.079333c-.7911226 0-1.4170014.271599-1.8776551.814805-.4606536.543207-.690977 1.292315-.690977 2.247347 0 .919661.2328269 1.644768.6984877 2.175341.4656607.530574 1.089036.795857 1.8701444.795857.7961297 0 1.4082391-.26023 1.8363466-.780697.4281075-.520468.6421581-1.260733.6421581-2.220819 0-.970192-.2140506-1.718037-.6421581-2.243557-.4281075-.525521-1.0402169-.788277-1.8363466-.788277zm20.2477485 6.897423h-1.2317417v-4.456797c0-.859024-.1314346-1.480543-.3943076-1.864578-.262873-.384034-.7047434-.576048-1.3256244-.576048-.5257461 0-.9726235.242544-1.3406458.72764-.3680222.485096-.5520305 1.066192-.5520305 1.743305v4.426478h-1.2317418v-4.608388c0-1.526031-.583319-2.289035-1.7499745-2.289035-.5407673 0-.986393.228648-1.3368904.685952-.3504973.457304-.5257434 1.052296-.5257434 1.784993v4.426478h-1.2317417v-7.761496h1.2317417v1.227893h.0300425c.5457745-.939873 1.3418922-1.409803 2.3883772-1.409803.5257461 0 .9838893.1478 1.3744435.443406.3905542.295605.6584303.683423.8036364 1.163466.57081-1.071253 1.4220051-1.606872 2.5536109-1.606872 1.6924015 0 2.5385896 1.053552 2.5385896 3.160687zm7.2093118-1.121779h-.0300425v4.691764h-1.2317417v-11.331481h1.2317417v1.364325h.0300425c.6058597-1.030828 1.4921041-1.546235 2.6587596-1.546235.9914068 0 1.7649929.347394 2.3207816 1.042193s.8336789 1.625815.8336789 2.793077c0 1.298642-.3129394 2.338299-.9388276 3.119-.6258881.780701-1.4820903 1.171046-2.5686321 1.171046-.9964139 0-1.764993-.434559-2.3057604-1.303689zm-.0300425-3.130369v1.083881c0 .641741.20654 1.186203.6196262 1.633401.4130862.447197.9375726.670793 1.5734749.670793.7460587 0 1.3306295-.288021 1.7537299-.864073.4231003-.576051.6346474-1.376953.6346474-2.402728 0-.864078-.1977777-1.54118-.593339-2.031329s-.9313136-.73522-1.6072728-.73522c-.716016 0-1.2918245.251387-1.7274426.754169-.4356182.502781-.653424 1.133144-.653424 1.891106zm16.935565 4.252148h-1.2317417v-1.212734h-.0300425c-.5357602.929767-1.3243675 1.394644-2.3658453 1.394644-.7660871 0-1.365679-.204647-1.7987936-.613947-.4331146-.409299-.6496686-.952498-.6496686-1.629611 0-1.450234.846188-2.294086 2.5385896-2.531581l2.3057604-.325922c0-1.318855-.5282417-1.978272-1.5847409-1.978272-.9263144 0-1.7624884.318339-2.5085471.955028v-1.273371c.7560729-.485096 1.6272961-.72764 2.6136958-.72764 1.807565 0 2.7113339.965124 2.7113339 2.895402zm-1.2317417-3.926226-1.8551232.257706c-.57081.08085-1.0014146.223597-1.2918267.428247s-.4356159.567203-.4356159 1.08767c0 .378982.133938.688478.4018181.9285.2678802.240021.6246311.36003 1.0702634.36003.6108669 0 1.1153251-.216016 1.51339-.648055.3980649-.432038.5970943-.979026.5970943-1.64098zm13.7360405 3.3047c0 2.849938-1.351898 4.274886-4.055735 4.274886-.95135 0-1.7825166-.181908-2.4935255-.54573v-1.243052c.8662292.485096 1.6923895.72764 2.4785045.72764 1.892686 0 2.839015-1.015654 2.839015-3.046993v-.848914h-.030043c-.585831.990404-1.467069 1.485599-2.643738 1.485599-.956357 0-1.7261882-.344868-2.3095159-1.034614-.5833278-.689745-.8749873-1.615709-.8749873-2.777918 0-1.318854.3141911-2.367353.9425828-3.145528s1.4883494-1.167256 2.5798984-1.167256c1.03647 0 1.80505.4194 2.30576 1.258211h.030043v-1.076301h1.231741zm-1.231741-2.887822v-1.144518c0-.616476-.20654-1.144515-.619627-1.584133-.413086-.439618-.927558-.659424-1.543432-.659424-.76108 0-1.356917.279178-1.787528.837544-.4306107.558366-.645913 1.340318-.645913 2.345882 0 .864077.20654 1.555075.619626 2.073016s.960104.776908 1.641071.776908c.69098 0 1.253019-.247597 1.686134-.742799.433115-.495203.649669-1.129355.649669-1.902476zm13.72853 3.509348h-1.231742v-4.426478c0-1.647305-.595837-2.470945-1.787528-2.470945-.615874 0-1.125339.233701-1.528411.701111-.403072.467411-.604605 1.057349-.604605 1.769834v4.426478h-1.231741v-7.761496h1.231741v1.28853h.030043c.580824-.980298 1.422005-1.47044 2.523568-1.47044.841194 0 1.484597.274126 1.93023.822385.445632.548259.668445 1.340318.668445 2.3762zm6.570909-9.732188c-.220313 0-.408076-.075795-.563297-.227388-.15522-.151592-.232829-.343607-.232829-.576048 0-.232442.077609-.42572.232829-.579839.155221-.154119.342984-.231177.563297-.231177.22532 0 .416838.077058.574562.231177s.236585.347397.236585.579839c0 .222335-.078861.411823-.236585.568469-.157724.156645-.349242.234967-.574562.234967zm.600849 9.732188h-1.231741v-7.761496h1.231741zm12.294002-3.569985h-5.430178c.020028.864077.250352 1.531074.690977 2.00101.440625.469937 1.046476.704902 1.81757.704902.866229 0 1.662347-.288021 2.388377-.864073v1.167256c-.675959.495202-1.569714.7428-2.681291.7428-1.086542 0-1.940241-.352447-2.561122-1.057352s-.931317-1.696558-.931317-2.974988c0-1.207686.339227-2.19176 1.017689-2.952248.678463-.760489 1.520896-1.140728 2.527324-1.140728s1.785021.328445 2.335803.985346c.550781.656901.826168 1.568968.826168 2.736231zm-1.261784-1.053563c-.005007-.717537-.176498-1.275894-.514478-1.675088-.337979-.399193-.807388-.598787-1.408241-.598787-.580824 0-1.074016.2097-1.479592.629105-.405576.419406-.655927.967657-.751062 1.64477z"/><path d="m131.582714 69.1288274h7.47842s0-9.0866633 12.010797-9.0866633c13.597128 0 11.557557 8.1779969 11.784178 9.0866633-.22662 11.3583291-33.766202-1.8173327-33.766202 19.3091595-2.039569 24.0796581 31.273394 17.2646601 33.766202 8.4051635 0 8.4051636 8.611515 8.8594966 13.14389 6.8149976.000001.6815.000001-3.634665 0-4.9976649-2.039568 0-5.665469.6814997-5.212232-2.725999.000001-5.2248314 0-28.1686562 0-28.1686562s2.266188-13.4028284-19.262598-14.7658279c-18.809361 1.3629995-19.942455 11.3583291-19.942455 16.1288274zm31.500014 14.7658278c0-2.1797629 0-5.4487796 0-5.6791645-3.399282 2.4988324-12.799337 2.9531655-13.823748 2.9531655-12.690653 2.725999-11.33094 5.6791646-11.33094 5.6791646s-1.133094 4.9976648.679857 8.6323301c1.81295 2.725999 17.676267 7.9508301 24.474831-7.21211.000001-1.007767 0-2.2545231 0-4.3733857z"/></g></g></svg>

<?xml version="1.0" encoding="UTF-8" standalone="no"?>
<svg width="176px" height="154px" viewBox="0 0 176 154" version="1.1" xmlns="http://www.w3.org/2000/svg" xmlns:xlink="http://www.w3.org/1999/xlink">
    <!-- Generator: Sketch 39.1 (31720) - http://www.bohemiancoding.com/sketch -->
    <title>LogoCompagnieMa</title>
    <desc>Created with Sketch.</desc>
    <defs></defs>
    <g id="Welcome" stroke="none" stroke-width="1" fill="none" fill-rule="evenodd">
        <g id="Desktop-HD" transform="translate(-281.000000, -27.000000)">
            <g id="LogoCompagnieMa" transform="translate(281.000000, 27.000000)">
                <path d="M74.5,154 C115.645214,154 149,120.645214 149,79.5 C149,38.3547861 115.645214,5 74.5,5 C33.3547861,5 0,38.3547861 0,79.5 C0,120.645214 33.3547861,154 74.5,154 Z" id="CercleROuge-Logo" fill="#F72C2F"></path>
                <path d="M75.4371954,98.3851464 C75.6631373,100.080661 75.4873596,104.565331 75.4371954,105 L75.4371954,105 L29.2123643,105 L29.2123643,105 C28.9623137,103.042231 29.1737625,98.3478315 29.2123643,98.0582107 L29.2123643,98.0582107 C29.2123643,98.0582107 40.3145773,97.3362827 44.4198087,94.2475775 C47.9894159,87.344974 53.661223,18.1169904 52.9088767,12.8731618 C45.5116033,6.34094665 35.7773357,7.02033379 35.7773357,7.02033379 C35.7773357,7.02033379 35.5509574,5.7747907 35.5509574,3.84986047 C35.5509574,1.92493023 35.7773357,0 35.7773357,0 C35.7773357,0 66.5647892,1.14928768 69.2813291,1.14928768 C71.997869,10.1908071 104.382857,74.3202586 104.382857,74.3202586 C104.875841,75.2984108 105.689245,75.2977942 106.198953,74.3181145 C106.198953,74.3181145 136.515692,16.3052914 141.551103,1.14928768 C144.235587,1.05705014 154.852329,0 175,0 L175,7.02033379 C175,7.02033379 158.248004,7.02033379 158.248004,12.8731618 L157.500406,50.048186 C157.500406,50.048186 158.248004,51.1804979 150.098384,51.1804979 C142.401528,51.1804979 142.401528,50.048186 142.401528,50.048186 L141.674308,26.4395543 C141.606264,24.230558 140.762775,24.0382456 139.782776,26.0253122 L121.121966,63.8623912 L103.0117,104.62562 C103.0117,104.62562 101.427051,104.62562 99.842403,104.62562 C98.2577554,104.62562 96.8994848,104.62562 96.8994848,104.62562 C96.8994848,104.62562 89.0980046,85.1423813 79.6947321,63.8623912 C70.2914596,42.5824012 61.1994644,23.835014 61.1994644,23.835014 C61.1994644,23.835014 57.0568978,83.7910807 57.9624129,91.2643393 C58.6415479,97.3788235 68.6021942,97.3788235 75.4371954,98.3851464 C75.6367397,99.846909 75.4371954,98.3851464 75.4371954,98.3851464 Z" id="grand-M-logo" fill="#FFFFFF"></path>
                <path d="M39.7681563,114.990399 C39.1773179,115.349168 38.4763337,115.52855 37.6651827,115.52855 C36.5686266,115.52855 35.6836341,115.168523 35.0101784,114.448459 C34.3367228,113.728395 34,112.794852 34,111.647802 C34,110.369372 34.3630097,109.342348 35.0890399,108.5667 C35.8150702,107.791052 36.7839305,107.403234 37.99565,107.403234 C38.6716092,107.403234 39.2674457,107.529559 39.7831776,107.782213 L39.7831776,109.055584 C39.2123676,108.651337 38.6015099,108.449217 37.9505862,108.449217 C37.1644707,108.449217 36.5198156,108.733448 36.0166015,109.30192 C35.5133875,109.870392 35.2617842,110.616974 35.2617842,111.541688 C35.2617842,112.451243 35.4983664,113.168769 35.9715378,113.69429 C36.4447092,114.219811 37.0793503,114.482567 37.87548,114.482567 C38.5464321,114.482567 39.1773179,114.257708 39.7681563,113.807984 L39.7681563,114.990399 Z M48.4645709,115.52855 C47.3279581,115.52855 46.4204339,115.165997 45.7419711,114.440879 C45.0635084,113.715762 44.7242821,112.754427 44.7242821,111.556847 C44.7242821,110.253152 45.0772777,109.234971 45.7832795,108.502274 C46.4892814,107.769577 47.4431206,107.403234 48.6448258,107.403234 C49.7914529,107.403234 50.6864595,107.759471 51.3298726,108.471956 C51.9732856,109.18444 52.2949873,110.172303 52.2949873,111.435574 C52.2949873,112.673579 51.9482504,113.665231 51.2547664,114.410561 C50.5612823,115.155891 49.6312265,115.52855 48.4645709,115.52855 L48.4645709,115.52855 Z M48.5546984,108.449217 C47.7635758,108.449217 47.137697,108.720816 46.6770433,109.264022 C46.2163897,109.807229 45.9860663,110.556337 45.9860663,111.511369 C45.9860663,112.43103 46.2188932,113.156137 46.684554,113.68671 C47.1502147,114.217284 47.77359,114.482567 48.5546984,114.482567 C49.3508281,114.482567 49.9629375,114.222337 50.391045,113.70187 C50.8191525,113.181402 51.0332031,112.441137 51.0332031,111.481051 C51.0332031,110.510859 50.8191525,109.763014 50.391045,109.237494 C49.9629375,108.711973 49.3508281,108.449217 48.5546984,108.449217 L48.5546984,108.449217 Z M68.8024469,115.34664 L67.5707052,115.34664 L67.5707052,110.889843 C67.5707052,110.030819 67.4392706,109.4093 67.1763976,109.025265 C66.9135246,108.641231 66.4716542,108.449217 65.8507732,108.449217 C65.3250271,108.449217 64.8781497,108.691761 64.5101274,109.176857 C64.1421052,109.661953 63.9580969,110.243049 63.9580969,110.920162 L63.9580969,115.34664 L62.7263551,115.34664 L62.7263551,110.738252 C62.7263551,109.212221 62.1430361,108.449217 60.9763806,108.449217 C60.4356133,108.449217 59.9899876,108.677865 59.6394902,109.135169 C59.2889929,109.592473 59.1137468,110.187465 59.1137468,110.920162 L59.1137468,115.34664 L57.8820051,115.34664 L57.8820051,107.585144 L59.1137468,107.585144 L59.1137468,108.813037 L59.1437893,108.813037 C59.6895638,107.873164 60.4856815,107.403234 61.5321665,107.403234 C62.0579126,107.403234 62.5160558,107.551034 62.90661,107.84664 C63.2971642,108.142245 63.5650403,108.530063 63.7102464,109.010106 C64.2810564,107.938853 65.1322515,107.403234 66.2638573,107.403234 C67.9562588,107.403234 68.8024469,108.456786 68.8024469,110.563921 L68.8024469,115.34664 Z M76.0117587,114.224861 L75.9817162,114.224861 L75.9817162,118.916625 L74.7499745,118.916625 L74.7499745,107.585144 L75.9817162,107.585144 L75.9817162,108.949469 L76.0117587,108.949469 C76.6176184,107.918641 77.5038628,107.403234 78.6705183,107.403234 C79.6619251,107.403234 80.4355112,107.750628 80.9912999,108.445427 C81.5470886,109.140226 81.8249788,110.071242 81.8249788,111.238504 C81.8249788,112.537146 81.5120394,113.576803 80.8861512,114.357504 C80.2602631,115.138205 79.4040609,115.52855 78.3175191,115.52855 C77.3211052,115.52855 76.5525261,115.093991 76.0117587,114.224861 L76.0117587,114.224861 Z M75.9817162,111.094492 L75.9817162,112.178373 C75.9817162,112.820114 76.1882562,113.364576 76.6013424,113.811774 C77.0144286,114.258971 77.538915,114.482567 78.1748173,114.482567 C78.920876,114.482567 79.5054468,114.194546 79.9285472,113.618494 C80.3516475,113.042443 80.5631946,112.241541 80.5631946,111.215766 C80.5631946,110.351688 80.3654169,109.674586 79.9698556,109.184437 C79.5742943,108.694288 79.038542,108.449217 78.3625828,108.449217 C77.6465668,108.449217 77.0707583,108.700604 76.6351402,109.203386 C76.199522,109.706167 75.9817162,110.33653 75.9817162,111.094492 L75.9817162,111.094492 Z M92.9172812,115.34664 L91.6855395,115.34664 L91.6855395,114.133906 L91.655497,114.133906 C91.1197368,115.063673 90.3311295,115.52855 89.2896517,115.52855 C88.5235646,115.52855 87.9239727,115.323903 87.4908581,114.914603 C87.0577435,114.505304 86.8411895,113.962105 86.8411895,113.284992 C86.8411895,111.834758 87.6873775,110.990906 89.3797791,110.753411 L91.6855395,110.427489 C91.6855395,109.108634 91.1572978,108.449217 90.1007986,108.449217 C89.1744842,108.449217 88.3383102,108.767556 87.5922515,109.404245 L87.5922515,108.130874 C88.3483244,107.645778 89.2195476,107.403234 90.2059473,107.403234 C92.0135123,107.403234 92.9172812,108.368358 92.9172812,110.298636 L92.9172812,115.34664 Z M91.6855395,111.420414 L89.8304163,111.67812 C89.2596063,111.75897 88.8290017,111.901717 88.5385896,112.106367 C88.2481775,112.311017 88.1029737,112.67357 88.1029737,113.194037 C88.1029737,113.573019 88.2369117,113.882515 88.5047918,114.122537 C88.772672,114.362558 89.1294229,114.482567 89.5750552,114.482567 C90.1859221,114.482567 90.6903803,114.266551 91.0884452,113.834512 C91.4865101,113.402474 91.6855395,112.855486 91.6855395,112.193532 L91.6855395,111.420414 Z M105.42158,114.725114 C105.42158,117.575052 104.069682,119 101.365845,119 C100.414495,119 99.5833284,118.818092 98.8723195,118.45427 L98.8723195,117.211218 C99.7385487,117.696314 100.564709,117.938858 101.350824,117.938858 C103.24351,117.938858 104.189839,116.923204 104.189839,114.891865 L104.189839,114.042951 L104.159796,114.042951 C103.573965,115.033355 102.692727,115.52855 101.516058,115.52855 C100.559701,115.52855 99.7898698,115.183682 99.2065421,114.493936 C98.6232143,113.804191 98.3315548,112.878227 98.3315548,111.716018 C98.3315548,110.397164 98.6457459,109.348665 99.2741376,108.57049 C99.9025293,107.792315 100.762487,107.403234 101.854036,107.403234 C102.890506,107.403234 103.659086,107.822634 104.159796,108.661445 L104.189839,108.661445 L104.189839,107.585144 L105.42158,107.585144 L105.42158,114.725114 Z M104.189839,111.837292 L104.189839,110.692774 C104.189839,110.076298 103.983299,109.548259 103.570212,109.108641 C103.157126,108.669023 102.642654,108.449217 102.02678,108.449217 C101.2657,108.449217 100.669863,108.728395 100.239252,109.286761 C99.8086413,109.845127 99.593339,110.627079 99.593339,111.632643 C99.593339,112.49672 99.799879,113.187718 100.212965,113.705659 C100.626051,114.2236 101.173069,114.482567 101.854036,114.482567 C102.545016,114.482567 103.107055,114.23497 103.54017,113.739768 C103.973285,113.244565 104.189839,112.610413 104.189839,111.837292 L104.189839,111.837292 Z M117.918369,115.34664 L116.686627,115.34664 L116.686627,110.920162 C116.686627,109.272857 116.09079,108.449217 114.899099,108.449217 C114.283225,108.449217 113.77376,108.682918 113.370688,109.150328 C112.967616,109.617739 112.766083,110.207677 112.766083,110.920162 L112.766083,115.34664 L111.534342,115.34664 L111.534342,107.585144 L112.766083,107.585144 L112.766083,108.873674 L112.796126,108.873674 C113.37695,107.893376 114.218131,107.403234 115.319694,107.403234 C116.160888,107.403234 116.804291,107.67736 117.249924,108.225619 C117.695556,108.773878 117.918369,109.565937 117.918369,110.601819 L117.918369,115.34664 Z M124.489278,105.614452 C124.268965,105.614452 124.081202,105.538657 123.925981,105.387064 C123.770761,105.235472 123.693152,105.043457 123.693152,104.811016 C123.693152,104.578574 123.770761,104.385296 123.925981,104.231177 C124.081202,104.077058 124.268965,104 124.489278,104 C124.714598,104 124.906116,104.077058 125.06384,104.231177 C125.221564,104.385296 125.300425,104.578574 125.300425,104.811016 C125.300425,105.033351 125.221564,105.222839 125.06384,105.379485 C124.906116,105.53613 124.714598,105.614452 124.489278,105.614452 L124.489278,105.614452 Z M125.090127,115.34664 L123.858386,115.34664 L123.858386,107.585144 L125.090127,107.585144 L125.090127,115.34664 Z M137.384129,111.776655 L131.953951,111.776655 C131.973979,112.640732 132.204303,113.307729 132.644928,113.777665 C133.085553,114.247602 133.691404,114.482567 134.462498,114.482567 C135.328727,114.482567 136.124845,114.194546 136.850875,113.618494 L136.850875,114.78575 C136.174916,115.280952 135.281161,115.52855 134.169584,115.52855 C133.083042,115.52855 132.229343,115.176103 131.608462,114.471198 C130.987581,113.766293 130.677145,112.77464 130.677145,111.49621 C130.677145,110.288524 131.016372,109.30445 131.694834,108.543962 C132.373297,107.783473 133.21573,107.403234 134.222158,107.403234 C135.228586,107.403234 136.007179,107.731679 136.557961,108.38858 C137.108742,109.045481 137.384129,109.957548 137.384129,111.124811 L137.384129,111.776655 Z M136.122345,110.723092 C136.117338,110.005555 135.945847,109.447198 135.607867,109.048004 C135.269888,108.648811 134.800479,108.449217 134.199626,108.449217 C133.618802,108.449217 133.12561,108.658917 132.720034,109.078322 C132.314458,109.497728 132.064107,110.045979 131.968972,110.723092 L136.122345,110.723092 Z" id="compagnie-logo" fill="#FFFFFF"></path>
                <path d="M131.582714,69.1288274 L139.061134,69.1288274 C139.061134,69.1288274 139.061134,60.0421641 151.071931,60.0421641 C164.669059,60.0421641 162.629488,68.220161 162.856109,69.1288274 C162.629489,80.4871565 129.089907,67.3114947 129.089907,88.4379869 C127.050338,112.517645 160.363301,105.702647 162.856109,96.8431504 C162.856109,105.248314 171.467624,105.702647 175.999999,103.658148 C176,104.339648 176,100.023483 175.999999,98.6604831 C173.960431,98.6604831 170.33453,99.3419828 170.787767,95.9344841 C170.787768,90.7096527 170.787767,67.7658279 170.787767,67.7658279 C170.787767,67.7658279 173.053955,54.3629995 151.525169,53 C132.715808,54.3629995 131.582714,64.3583291 131.582714,69.1288274 Z M163.082728,83.8946552 C163.082728,81.7148923 163.082728,78.4458756 163.082728,78.2154907 C159.683446,80.7143231 150.283391,81.1686562 149.25898,81.1686562 C136.568327,83.8946552 137.92804,86.8478208 137.92804,86.8478208 C137.92804,86.8478208 136.794946,91.8454856 138.607897,95.4801509 C140.420847,98.2061499 156.284164,103.430981 163.082728,88.2680409 C163.082729,87.2602739 163.082728,86.0135178 163.082728,83.8946552 Z" id="Combined-Shape" fill="#FFFFFF"></path>
            </g>
        </g>
    </g>
</svg>
